theme/black/state-ok.svg

<svg width="16" height="16" version="1.1" viewBox="0 0 4.2333 4.2333" xmlns="http://www.w3.org/2000/svg"><path transform="scale(.26458)" d="m8 1a7 7 0 0 0-7 7 7 7 0 0 0 7 7 7 7 0 0 0 7-7 7 7 0 0 0-7-7zm0 1a6 6 0 0 1 6 6 6 6 0 0 1-6 6 6 6 0 0 1-6-6 6 6 0 0 1 6-6zm3.7812 3.3594a0.75005 0.75005 0 0 0-0.51562 0.22852l-4.3633 4.3633-2.1113-2.1113a0.75005 0.75005 0 1 0-1.0625 1.0547l2.6426 2.6504a0.75005 0.75005 0 0 0 1.0625 0l4.8945-4.8945a0.75005 0.75005 0 0 0-0.54688-1.291z" stroke-width=".82894"/></svg>

<?xml version="1.0" encoding="UTF-8" standalone="no"?>
<!DOCTYPE svg PUBLIC "-//W3C//DTD SVG 1.1//EN" "http://www.w3.org/Graphics/SVG/1.1/DTD/svg11.dtd">
<svg width="100%" height="100%" viewBox="0 0 16 16"
    xmlns="http://www.w3.org/2000/svg" version="1.1">
    <path d="M8,1C4.16,1 1,4.16 1,8C1,11.84 4.16,15 8,15C11.84,15 15,11.84 15,8C15,4.16 11.84,1 8,1ZM8,2C11.291,2 14,4.708 14,8C14,11.291 11.291,14 8,14C4.708,14 2,11.291 2,8C2,4.708 4.708,2 8,2ZM11.781,5.359C11.586,5.366 11.401,5.448 11.266,5.588L6.902,9.951L4.791,7.84C4.649,7.677 4.443,7.584 4.226,7.584C3.815,7.584 3.476,7.922 3.476,8.334C3.476,8.548 3.568,8.752 3.728,8.895L6.371,11.545C6.512,11.686 6.703,11.766 6.902,11.766C7.102,11.766 7.293,11.686 7.434,11.545L12.328,6.65C12.476,6.509 12.559,6.313 12.559,6.109C12.559,5.698 12.22,5.359 11.809,5.359C11.8,5.359 11.79,5.359 11.781,5.359L11.781,5.359Z" style="fill-rule:nonzero;"/>
</svg>
